X:1
T:Amog the Blue Flowers and Yellow
M:6/8
L:1/8
K:C
 z4 z F,| E,/2 E,3/2 E, G,/2 G,3/2 G,| F,/2 G,3/2 F, E,2 D/2B,/2| C2 C E3/2 C/2 B,|\
 F F2 B,2 B,| E3/2 C/2 B, F3/2 E/2 C| A,/2 G,3/2 F,/2 E,/2 F,3/2 F,/2 F,|\
 E,3/2 E,/2 E, E, F, G,/2 G,/2| G,2 F, E,2 z|
